-----BEGIN PGP PUBLIC KEY BLOCK-----

mQINBGpzj2ABEADu2evcz14j6tAIg+I4kofdonovWXgwmWlw1Cu/0tEYu00g8Stc
/gwExVgxyx1gIn5xvt7VYIJHL//2gos4DqUfhd4om3UsFV8r+d7tpBGeOAvWUhR2
sjMCpoP3PxF10HlRmcQa63Y19Mvr13TjA8AhTwVPfXJvhV+eVSzkGI623x+85MzD
Ub/1Sh2xxbKR3N2ImGZM5YEjjm4v1voYDZc/gPpWtBsT6ePa6URut63Ft/pj9Neu
l7ZiyQQM7Yw5OvZOb+NqU2bIo2kZnABK2bsq1LQ0AXfrUiwTtIHjuzDtOtnSsD5V
cU5nNLmVsMhH3rJjUc98ftGK80uu7iKny88JdfT9L4nTZIogYApvpinjlC66nomQ
W4ZOnShNVpPBC3BnCfX+9D2AcqNMet4pYhCocRKtTu5ozvg+7sDcq3qtpuX3nVDn
/U9azLLB7oKgg5uEecI3iFDiy7iAJcZOyOTZHeeT/vTqyp9v3Yfmp+rT0QOqJXx8
un2xbx8qH8y2TLr+rhn4Sc1JW7zwgupevAxkOLMfP7JsMmZvjbuvqZiXmggwqe0X
Lxora8QESLWoCXYnQZODchF2yWhsKNTvwGFkeMFgglcEGCcEUpq0oaa8iP18Bueh
e30O8HYc4cOd5wp4OaxXrCET7+vkcWawYQRdQMebkObyxhMtrjvpj8HXnQARAQAB
tDJDaGFwZWxUZWNoIFBhY2thZ2UgUmVwb3NpdG9yeSA8cmVwb0BjaGFwZWx0ZWNo
LnVrPokCVwQTAQoAQRYhBNve1YXGpMwXnkV3voCw2yW+FsfvBQJqc49gAhsBBQkS
zAMABQsJCAcCAiICBhUKCQgLAgQWAgMBAh4HAheAAAoJEICw2yW+FsfvqnwQAOsY
uAXwvZFkF46NDLD0LHAeZJsqYxQhnfOT3eDuY7HI/MjXvv8LitwHB7OwGL3Pvci+
XeWzMyN9zQBch/CbDEpm2p5J3ni8iwrmGUwJ1vL+RL/lku49uERCKLHWXbW0gQhW
/A2OVIifditQiF1XHlhouflXdPmIxSdIrcPqMPHij1VD72Yr+8PuhfslFsgPYyC6
aIWSybihyA4/N7OMThUVb5UrY7b11gd+VeeYTTChJG+LeBAOWXGs/eCUk5DTgP3l
hUnKDH3bjazpjXGBqu9FYv49V1WTtH1wuDXzr2xiavkeHBEmSvnLCQC2x8eXiTfS
JJnmZT9mrebZoyFfM2A+LczdSzK/lQEVppN2M5pp1azM9jYCo3FWUlXGjyRC94bU
WV5EOwbbadf4EhSUgJzeKnTKzZxTWS5XyWXtXTSIjNt2WtoFwpHdIU77DC1KtctK
Gy7/cMcl1CxA2KawIpHIOAlLJbZnIDLQhPTCHX1OkCypRjrSWsn7vvY+rvbay4XR
19oN/Sw85gaQtdOYHuB7vDQJUkf0qEj0DCMtXRR7eU/pVvE3Cabj7p0xin/LBzWJ
xT/Vuh8PfPyWT2xgZ51X38ibPyW04G0AUMxRyqalxyUvRILvTxe0hhkkXUWUok+3
OPkN9K01ny0sI3R4Ik+QmvNiQ/LVXOSV/oHkI+19uQINBGpzj28BEAC0pngkK0Rn
kTsiXlaesWCbp4PQNemvK/yI6eu+5qGCcQCxrut7SwS8qvuYRTe5sZZf6XFkQFOJ
Yb4VglYcUcFKTuovC+DvNQ7MRAxGOA4jF//PQHionF9BhEBOkJiKu4nup1syQ/A7
hNSuvByftAo7vuJzQvJqQ1Ioit+mFrl9Uyc7a2Sp+IYl9/kUtKtIpeyHI+fk9XJT
Z7VtLKP/2km5U6E4BI9tpb398B5fPsWsnMeIW5NtDzLY7QQkEyILHxGnNjFJkDAW
8ZqgdBFbTCh/9uEoRaRBZ9/R2ho/tX2vnvWBFCBye2fAiuk0HO/JE6UkAPMMu8G0
bbG0hsIH8pmkZmLNMA4gopE12KPCzyxxFetv+LWbeFoOJobkwx8QfYPdOQRhxDy8
/Rb4sv5N4Fn2kRdXHAlyDPWPvYuHxg7VoJ8eS1ZkxLYr8vCEC2UOqZDqiUY3u4gr
vzcYDoJMyd7GU5AcZNOZJM+uAq/V61L9cEViv3GQHkuSTUKE07Ll7H0FFBLsJN1e
zXJ7VUabf/mXw+MLAwlx/7rn4aL/IFdos50SyiUZzLM0YpKWMuHpwA9ooPS8k6xa
bJsfYVavG23feWhQzhO5pMvTbRpYICEi3EA3ZQSdJJvoad+spYumaKOmm5JPSjNG
1grxcDo97RyhBIFHff3hY0GYJ81DTCrebwARAQABiQRyBBgBCgAmFiEE297Vhcak
zBeeRXe+gLDbJb4Wx+8FAmpzj28CGwIFCQWjmoACQAkQgLDbJb4Wx+/BdCAEGQEK
AB0WIQRKKWXxS8iv3Q4WBUMHruUO9U4t8gUCanOPbwAKCRAHruUO9U4t8u8KD/9P
XcOjZwVG0xOLSrDpNfepyVHDynymjDBO9RWVo0D5uDsy47GfhjWgdfchx+QzE/QB
fywXojhJrQoOPGJas0l4+5r5mABQsuAoscA1rJ/WaiAny7vRIiK1lDhWmQWiCaQq
Y7Q0SlL+lM7TOcredhZNQnraoSJvcoBgmIkU5Ur8+DHJXqY21DtmMQ84hP2n2Khr
3STg5TodGzxwouu/M1zNVqYZyYTCE1fwvX+I4XIolKLUY6XneGbDCVOFlVrMFulz
jgd6FQz1Nt9UvE4owYHDAVcdKXtYXz/10r4uB6vwfwff0AO/dwGi4KJOmCArWdVP
nXR80sjJBt/ali/ROT4zlHOcBt6w+at+ZRBqp6chmBYstbAyAKySIk7DJ0qN90rI
blvwwaz4mknInbUHZFoQEDRhjn7IvqI3xdLtDgWnlSwf2P2iMARaom20Q1EKmFjY
ZVhfJD5wmfMqRhM5eaBlDKASrfQF3R2w4a0/fje3D8G7SMCTjZz17nsMFg3cWE2Y
sZi39hChUjfMKz2i1AGQhaRnUB84n2jhwqE6dgGX/LcWJWrtYQzGQMA0Jq/pVE5e
/AwmRYmwFNYodMo4u2HSBTehR9kyE/EaWe3PoMpDsR8BG0owG7SuT4PoeiTzsyx7
Abyn98KaA7wzj4dlL8zfO245vhiWUV7R56BdoTJTXuYFD/4nFUjwT8ZwgnhvRyu/
NbsCVsfDciVTK3QyfumJUA8nwKc/obptxzpjCuFKVOFR9o//4ZyxibxIh68sq+2M
SCikClWOJbmV4rwuhcSms5QQXQZiAXGegwnh+aunoJXzvGfZJhOoHU+I9KDnVFGz
G70DSNGpiWLM/OVLvBEpSSeFdNESPExvZ9aYblmGhlbj+ZKJuV8tA2aFLfOkULeh
3ZSiMSpVcCmohXlqmJ5iUmKOpvBmhN+39aeK+z9m9aIALEYzic/yllvfbZ6S15dz
pve+IAyJZ+qNdKtiMxq5sZ3hEg+eREVZFyR/Au55HtjK/Xz2/Ou3hUZ1G5tCk1gM
owNtco7RdrzMoKSOQjMmBFq/PpYMOUVMjpv3tgHGZs78yLDHEBEYPPdJ8Ga8iJNr
NrqK7nyLbtJaVS9XxZt8lqsCoTqpe2qfnSVuzbSX5Wjtkc3Lts3Xz5Xjg8yrlAfn
7ZCES4XPMRYgXSMlI00QYRa96HejCs3WLhkcw6ShcUf+BuzW0VS33oR2r1OkwnBM
asigqqG+ltnYNOT5mKVLRb4E2VccXuR1DTKOXiRSGG5Z4lLfIj/99g7YdKOuaF8M
S6g9wooDWteWMhDokGJcDYLGLxU4kApmXVej6yN67UhfgYknbWCFf9IBa5xoLoJk
1vk+Q5ze9x8BMR0ZhD2p3c0ilw==
=XhD4
-----END PGP PUBLIC KEY BLOCK-----
